docs/img/network-fc.svg

<svg width="22" height="21" viewBox="0 0 22 21" fill="none" xmlns="http://www.w3.org/2000/svg">
<path d="M20.7856 2.37542e-08H1.21333C0.543152 0.000384547 -0.000134252 0.519232 2.48854e-08 1.1592V19.8418C0.000402859 20.4815 0.543958 21.0001 1.2144 21H11.752V12.8789H8.89453V9.7002H11.752V7.36089C11.752 4.6481 13.487 3.17153 16.0221 3.17153C17.2364 3.17153 18.2798 3.25792 18.584 3.2965V6.13184H16.8358C15.4565 6.13184 15.1895 6.75745 15.1895 7.67569V9.7002H18.4873L18.0576 12.8789H15.1895V21H20.7856C21.4562 21.0001 21.9999 20.4814 22 19.8413C22 19.8412 22 19.8411 22 19.8408V1.15818C21.9997 0.518463 21.456 -0.00012815 20.7856 2.37542e-08Z" fill="black" fill-opacity="0.26"/>
</svg>

<svg width="22" height="21" viewBox="0 0 22 21" fill="none" xmlns="http://www.w3.org/2000/svg"><path d="M20.786 0H1.213C.543 0 0 .52 0 1.16v18.682C0 20.482.544 21 1.214 21h10.538v-8.121H8.895V9.7h2.857V7.36c0-2.712 1.735-4.188 4.27-4.188 1.214 0 2.258.086 2.562.124v2.836h-1.748c-1.38 0-1.646.625-1.646 1.544V9.7h3.297l-.43 3.179H15.19V21h5.596c.67 0 1.214-.519 1.214-1.159V1.158C22 .518 21.456 0 20.786 0z" fill="#000" fill-opacity=".26"/></svg>
